X: 14279
T: Gaelic Revival, The
R: reel
M: 4/4
K: Dmajor
dF ~F2 DF ~F2|dF ~F2 AFDc|BAGF EFGA|BABc dfec|
dF (3FFF AF (3FFF|DEFA d2 de|fedc BcdB|AFdF FE E2||
cAeA EAcA|cBce fedc|dBfB FABc|dcdf ^gfed|
((3cBA) EA ((3cBA) eA|cBce fef^g|a^gfe fedc|dfed cAAd||
cBAc BAFA|dF (3FFF AFDd|cBAc BAFA|BEEF GA ((3Bcd)|
cB ((3ABc) BAFA|DEFA dcde|fedc BcdB|AFdF FE E2||
cAEA eAce|f^gaf edce|dBFB fBde|~f3 ^g afed|
cA (3AAA eA (3AAA|cAae cdea|fede f^gaf|ecdB cABc||

